X:930
T:The Tenpenny Bit. 2nd Setting.
B:O'Neill's 930
N:"collected by J. Kennedy."
Z:Transcribed by Tom Keays (htkeays@mailbox.syr.edu)
Z:abc 1.6
M:6/8
R:Jig
L:1/8
K:Am
A/G/|EAA G2 A|Bed Bcd|edB G2 A|B2 c/B/A GED|
DED G2A|Bed Bcd|ede gdB|cBAG A2 :|
||d|e2 f gfg|eag fed|e2 f gfg|efg a2 a|
bgb afa|gfe def|gfe fdB|cBAG A2 :|
